icons/fill-new-container-shopping-cart-full.svg

<svg xmlns="http://www.w3.org/2000/svg" width="32px" height="32px" viewBox="0 0 32 32" version="1.1">
    <title>fill-new-container-shopping-cart-full</title>
    <g id="fill-new-container-shopping-cart-full" stroke-width="1" fill-rule="evenodd">
        <path d="M8,2 C8.47668102,2 8.88709584,2.33645967 8.98058068,2.80388386 L10.219,9 L29,9 C29.6028922,9 30.0588532,9.5257996 29.9943434,10.1078406 L29.9743912,10.2248595 L26.9743912,23.2248595 C26.869684,23.6785906 26.465656,24 26,24 L12,24 C11.523319,24 11.1129042,23.6635403 11.0194193,23.1961161 L7.18,4 L3,4 C2.48716416,4 2.06449284,3.61395981 2.00672773,3.11662113 L2,3 C2,2.44771525 2.44771525,2 3,2 L8,2 Z M19.7071068,3.20710678 L23.5,7 L14.5,7 L18.2928932,3.20710678 C18.6834175,2.81658249 19.3165825,2.81658249 19.7071068,3.20710678 Z M13.5,29 C14.3284271,29 15,28.3284271 15,27.5 C15,26.6715729 14.3284271,26 13.5,26 C12.6715729,26 12,26.6715729 12,27.5 C12,28.3284271 12.6715729,29 13.5,29 Z M23.5,29 C24.3284271,29 25,28.3284271 25,27.5 C25,26.6715729 24.3284271,26 23.5,26 C22.6715729,26 22,26.6715729 22,27.5 C22,28.3284271 22.6715729,29 23.5,29 Z" id="&#24418;&#29366;" fill-rule="nonzero" />
    </g>
</svg>

<svg xmlns="http://www.w3.org/2000/svg" viewBox="0 0 32 32"><path fill="currentColor" d="M8 2a1 1 0 0 1 .98.804L10.22 9H29a1 1 0 0 1 .994 1.108l-.02.117-3 13A1 1 0 0 1 26 24H12a1 1 0 0 1-.98-.804L7.18 4H3a1 1 0 0 1-.993-.883L2 3a1 1 0 0 1 1-1zm11.707 1.207L23.5 7h-9l3.793-3.793a1 1 0 0 1 1.414 0M13.5 29a1.5 1.5 0 1 0 0-3 1.5 1.5 0 0 0 0 3m10 0a1.5 1.5 0 1 0 0-3 1.5 1.5 0 0 0 0 3"/></svg>
